app/assets/v2/images/mission/value/empathetic.svg

<svg xmlns="http://www.w3.org/2000/svg" viewBox="0 0 46.87 56.25"><g data-name="Layer 2"><path d="M16.86 11a8.05 8.05 0 0 1 5.86 2.81A8.05 8.05 0 0 1 28.58 11a8.16 8.16 0 0 1 8.2 8.21A21.56 21.56 0 0 1 23.19 39a1 1 0 0 1-.94 0A21.56 21.56 0 0 1 8.66 19.2a8.16 8.16 0 0 1 8.2-8.2z" fill="#00ed92"/><path d="M19.92 0a19.9 19.9 0 0 1 19.92 19.57l6.92 12.66a1.09 1.09 0 0 1 .11.58V34a1.1 1.1 0 0 1-1.17 1.18h-5.86V41a4.78 4.78 0 0 1-4.68 4.68h-3.52v10.57H29.3V44.53a1.11 1.11 0 0 1 1.17-1.17h4.69A2.39 2.39 0 0 0 37.5 41v-7a1.11 1.11 0 0 1 1.17-1.17h5.74l-6.79-12.3a1 1 0 0 1-.12-.59 17.58 17.58 0 0 0-35.16 0c0 6 1.88 10.31 3.75 14.53 1.64 4 3.28 7.74 3.28 12.42v9.38H7v-9.4c0-4.21-1.52-7.73-3.16-11.48C2.11 31.17 0 26.37 0 19.92A19.91 19.91 0 0 1 19.92 0zm-5.86 8.2a8 8 0 0 1 5.86 2.8 8 8 0 0 1 5.86-2.8A8.16 8.16 0 0 1 34 16.41a21.56 21.56 0 0 1-13.59 19.8 1 1 0 0 1-.94 0 21.56 21.56 0 0 1-13.61-19.8 8.16 8.16 0 0 1 8.2-8.21zm5.86 25.67a19 19 0 0 0 11.72-17.46 5.8 5.8 0 0 0-5.86-5.86 6 6 0 0 0-4.8 3 1.21 1.21 0 0 1-2 0 6.37 6.37 0 0 0-4.92-3 5.8 5.8 0 0 0-5.86 5.86 19 19 0 0 0 11.72 17.46z" fill="#180041"/></g></svg>

<svg xmlns="http://www.w3.org/2000/svg" viewBox="0 0 46.87 56.25"><defs><style>.cls-1{fill:#00ed92;}.cls-2{fill:#180041;}</style></defs><title>empathetic</title><g id="Layer_2" data-name="Layer 2"><g id="Layer_2-2" data-name="Layer 2"><path class="cls-1" d="M16.86,11a8.05,8.05,0,0,1,5.86,2.81A8.05,8.05,0,0,1,28.58,11a8.16,8.16,0,0,1,8.2,8.21A21.56,21.56,0,0,1,23.19,39a1,1,0,0,1-.94,0A21.56,21.56,0,0,1,8.66,19.2,8.16,8.16,0,0,1,16.86,11Z"/><path class="cls-2" d="M19.92,0A19.9,19.9,0,0,1,39.84,19.57l6.92,12.66a1.09,1.09,0,0,1,.11.58V34a1.1,1.1,0,0,1-1.17,1.18H39.84V41a4.78,4.78,0,0,1-4.68,4.68H31.64V56.25H29.3V44.53a1.11,1.11,0,0,1,1.17-1.17h4.69A2.39,2.39,0,0,0,37.5,41V34a1.11,1.11,0,0,1,1.17-1.17h5.74l-6.79-12.3a1,1,0,0,1-.12-.59,17.58,17.58,0,0,0-35.16,0c0,6,1.88,10.31,3.75,14.53,1.64,4,3.28,7.74,3.28,12.42v9.38H7V46.87c0-4.21-1.52-7.73-3.16-11.48C2.11,31.17,0,26.37,0,19.92A19.91,19.91,0,0,1,19.92,0ZM14.06,8.2A8,8,0,0,1,19.92,11,8,8,0,0,1,25.78,8.2,8.16,8.16,0,0,1,34,16.41a21.56,21.56,0,0,1-13.59,19.8,1,1,0,0,1-.94,0A21.56,21.56,0,0,1,5.86,16.41,8.16,8.16,0,0,1,14.06,8.2Zm5.86,25.67A19,19,0,0,0,31.64,16.41a5.8,5.8,0,0,0-5.86-5.86,6,6,0,0,0-4.8,3,1.21,1.21,0,0,1-2,0,6.37,6.37,0,0,0-4.92-3A5.8,5.8,0,0,0,8.2,16.41,19,19,0,0,0,19.92,33.87Z"/></g></g></svg>
